svg/blobs-icons/no-decorations/mouse.svg

<svg xmlns="http://www.w3.org/2000/svg" xmlns:xlink="http://www.w3.org/1999/xlink" preserveAspectRatio="xMidYMid" width="138" height="216" viewBox="0 0 138 216"><defs><style>.cls-3{fill:#142a3b}.cls-4{fill:#000;opacity:.35}.cls-5{fill:#ededed}</style></defs><g id="group-50svg"><path d="M83.251 22.917s-9.988.0-9.988.0C72.744 14.345 64.996 10.88 59.756 8.604c-2.79-1.217-6.261-2.731-6.261-4.03.0-2.535-2.051-4.586-4.586-4.586-2.534.0-4.586 2.051-4.586 4.586.0 7.308 6.799 10.274 11.765 12.432 4.904 2.14 7.376 3.573 7.887 5.911H54.301C24.354 22.917-.014 47.279-.014 77.231V77.947s0 68.931.0 68.931c0 37.85 30.795 68.643 68.646 68.643H68.919c37.852.0 68.646-30.793 68.646-68.643V77.947S137.565 77.231 137.565 77.231c0-29.952-24.368-54.314-54.314-54.314z" id="path-1" class="cls-3" fill-rule="evenodd"/><path d="M115.269 33.457C121.863 42.447 125.808 53.494 125.808 65.474V66.19s0 68.931.0 68.931c0 37.85-30.793 68.644-68.645 68.644H56.875c-15.933.0-30.578-5.506-42.241-14.648 12.577 16.04 32.08 26.404 53.998 26.404H68.919c37.852.0 68.646-30.793 68.646-68.643V77.946S137.565 77.231 137.565 77.231c0-17.972-8.81-33.884-22.296-43.774z" id="path-2" class="cls-4" fill-rule="evenodd"/><path d="M86.884 100.874s-36.217.0-36.217.0c-.552.0-1-.447999999999993-1-1V59.837c0-.552000000000007.448-1 1-1H86.884C87.436 58.837 87.884 59.285 87.884 59.837V99.874c0 .552000000000007-.447999999999993 1-1 1z" id="path-3" class="cls-5" fill-rule="evenodd"/><path d="M64.189 93.612S73.361 93.612 73.361 93.612s0-27.514.0-27.514S64.189 66.098 64.189 66.098s0 27.514.0 27.514z" id="path-4" class="cls-3" fill-rule="evenodd"/></g></svg>

<svg xmlns="http://www.w3.org/2000/svg" xmlns:xlink="http://www.w3.org/1999/xlink" preserveAspectRatio="xMidYMid" width="138" height="216" viewBox="0 0 138 216">
  <defs>
    <style>

      .cls-3 {
        fill: #142a3b;
      }

      .cls-4 {
        fill: #000000;
        opacity: 0.35;
      }

      .cls-5 {
        fill: #ededed;
      }
    </style>
  </defs>
  <g id="group-50svg">
    <path d="M83.251,22.917 C83.251,22.917 73.263,22.917 73.263,22.917 C72.744,14.345 64.996,10.880 59.756,8.604 C56.966,7.387 53.495,5.873 53.495,4.574 C53.495,2.039 51.444,-0.012 48.909,-0.012 C46.375,-0.012 44.323,2.039 44.323,4.574 C44.323,11.882 51.122,14.848 56.088,17.006 C60.992,19.146 63.464,20.579 63.975,22.917 C63.975,22.917 54.301,22.917 54.301,22.917 C24.354,22.917 -0.014,47.279 -0.014,77.231 C-0.014,77.231 -0.014,77.947 -0.014,77.947 C-0.014,77.947 -0.014,146.878 -0.014,146.878 C-0.014,184.728 30.781,215.521 68.632,215.521 C68.632,215.521 68.919,215.521 68.919,215.521 C106.771,215.521 137.565,184.728 137.565,146.878 C137.565,146.878 137.565,77.947 137.565,77.947 C137.565,77.947 137.565,77.231 137.565,77.231 C137.565,47.279 113.197,22.917 83.251,22.917 Z" id="path-1" class="cls-3" fill-rule="evenodd"/>
    <path d="M115.269,33.457 C121.863,42.447 125.808,53.494 125.808,65.474 C125.808,65.474 125.808,66.190 125.808,66.190 C125.808,66.190 125.808,135.121 125.808,135.121 C125.808,172.971 95.015,203.765 57.163,203.765 C57.163,203.765 56.875,203.765 56.875,203.765 C40.942,203.765 26.297,198.259 14.634,189.117 C27.211,205.157 46.714,215.521 68.632,215.521 C68.632,215.521 68.919,215.521 68.919,215.521 C106.771,215.521 137.565,184.728 137.565,146.878 C137.565,146.878 137.565,77.946 137.565,77.946 C137.565,77.946 137.565,77.231 137.565,77.231 C137.565,59.259 128.755,43.347 115.269,33.457 Z" id="path-2" class="cls-4" fill-rule="evenodd"/>
    <path d="M86.884,100.874 C86.884,100.874 50.667,100.874 50.667,100.874 C50.115,100.874 49.667,100.426 49.667,99.874 C49.667,99.874 49.667,59.837 49.667,59.837 C49.667,59.285 50.115,58.837 50.667,58.837 C50.667,58.837 86.884,58.837 86.884,58.837 C87.436,58.837 87.884,59.285 87.884,59.837 C87.884,59.837 87.884,99.874 87.884,99.874 C87.884,100.426 87.436,100.874 86.884,100.874 Z" id="path-3" class="cls-5" fill-rule="evenodd"/>
    <path d="M64.189,93.612 C64.189,93.612 73.361,93.612 73.361,93.612 C73.361,93.612 73.361,66.098 73.361,66.098 C73.361,66.098 64.189,66.098 64.189,66.098 C64.189,66.098 64.189,93.612 64.189,93.612 Z" id="path-4" class="cls-3" fill-rule="evenodd"/>
  </g>
</svg>
